packages/icons/src/components/Logo/assets/dark/own-cloud.svg

<svg width="20" height="20" viewBox="0 0 20 20" fill="none" xmlns="http://www.w3.org/2000/svg">
<g>
<path d="M9.03906 4.60156C7.55859 4.60156 6.35938 5.80078 6.35938 7.28125C6.35938 7.88281 6.55859 8.44141 6.91797 8.92187C7.67969 8.04297 8.75781 7.52344 9.99609 7.52344C10.5977 7.52344 11.1562 7.64453 11.6758 7.88281C11.7148 7.68359 11.7539 7.48437 11.7539 7.28125C11.7617 5.80078 10.5586 4.60156 9.03906 4.60156ZM5.55859 5.83984C4.79688 5.83984 4.16016 6.48047 4.16016 7.23828C4.16016 7.47656 4.23828 7.71875 4.32031 7.91797C4.80078 7.63672 5.32031 7.51953 5.92188 7.51953H6.08203V7.28125C6.08203 6.83984 6.16016 6.44141 6.32031 6.08203C6.07812 5.92187 5.83984 5.83984 5.55859 5.83984ZM12.1602 6.80078H12C12.0391 6.96094 12.0391 7.12109 12.0391 7.28125C12.0391 7.51953 12 7.76172 11.9609 8C12.6406 8.35938 13.1992 8.92188 13.5625 9.64062C13.9609 9.44141 14.3633 9.32031 14.8438 9.28125C14.7188 7.87891 13.6016 6.80078 12.1602 6.80078ZM10 7.80078C7.92188 7.80078 6.23828 9.48047 6.23828 11.5625C6.23828 13.6445 7.91797 15.3242 10 15.3242C12.082 15.3242 13.7617 13.6445 13.7617 11.5625C13.7617 9.48047 12.0781 7.80078 10 7.80078ZM5.92188 7.83984C4.32031 7.83984 3 9.16016 3 10.7617C3 11.7227 3.44141 12.5625 4.16016 13.082C4.44141 12.5234 5.03906 12.1211 5.71875 12.1211C5.79688 12.1211 5.87891 12.1211 5.95703 12.1602C5.91797 11.9609 5.91797 11.8008 5.91797 11.6016C5.91797 10.6797 6.19922 9.83984 6.71875 9.16016C6.39844 8.80078 6.19922 8.32031 6.11719 7.83984H5.92188ZM15.0781 9.55859C14.5977 9.55859 14.1172 9.67969 13.7188 9.87891C13.957 10.3984 14.0781 10.957 14.0781 11.5586C14.0781 12.6797 13.6367 13.6797 12.918 14.4375C13.4375 15.0391 14.2383 15.3984 15.0781 15.3984C16.6797 15.3984 18 14.0781 18 12.4766C18 10.8789 16.6797 9.55859 15.0781 9.55859ZM2.67969 9.96094C1.19922 9.96094 0 11.1602 0 12.6406C0 14.1211 1.19922 15.3203 2.67969 15.3203C3.23828 15.3203 3.75781 15.1602 4.19922 14.8398C4.03906 14.5586 3.91797 14.2383 3.91797 13.8789C3.91797 13.6797 3.95703 13.5195 3.99609 13.3594C3.19531 12.7578 2.63672 11.8008 2.63672 10.7578C2.63672 10.4766 2.67578 10.2383 2.75781 9.95703C2.76172 9.96094 2.71875 9.96094 2.67969 9.96094ZM18.5195 12.2812C18.4414 12.2812 18.3594 12.2812 18.2812 12.3203V12.5195C18.2812 13.3594 17.9609 14.1602 17.4023 14.7188C17.6836 15.0391 18.082 15.2383 18.5234 15.2383C19.3242 15.2383 20.0039 14.5977 20.0039 13.7578C20.0039 12.918 19.3203 12.2812 18.5195 12.2812ZM5.71875 12.3984C4.91797 12.3984 4.23828 13.0391 4.23828 13.8789C4.23828 14.7187 4.87891 15.3594 5.71875 15.3594C6.35937 15.3594 6.87891 14.9609 7.07812 14.4375C6.55859 13.918 6.15625 13.2383 6 12.4766C5.92188 12.4414 5.80078 12.3984 5.71875 12.3984Z" fill="white"/>
</g>
<defs>
<clipPath id="clip0_378_532">
<rect width="20" height="20" fill="white"/>
</clipPath>
</defs>
</svg>

<svg xmlns="http://www.w3.org/2000/svg" width="20" height="20" fill="none" viewBox="0 0 20 20">
    <path fill="#fff" d="M9.04 4.602a2.679 2.679 0 0 0-2.122 4.32 4 4 0 0 1 3.078-1.399q.902.001 1.68.36c.039-.2.078-.399.078-.602.008-1.48-1.195-2.68-2.715-2.68M5.558 5.84c-.762 0-1.399.64-1.399 1.398 0 .239.078.48.16.68.48-.281 1-.398 1.602-.398h.16v-.24q-.001-.661.238-1.199a1.33 1.33 0 0 0-.761-.242m6.601.96H12c.04.16.04.321.04.481 0 .239-.04.48-.08.719a3.76 3.76 0 0 1 1.602 1.64c.399-.199.801-.32 1.282-.359-.125-1.402-1.242-2.48-2.684-2.48M10 7.8a3.76 3.76 0 0 0-3.762 3.763A3.756 3.756 0 0 0 10 15.324a3.756 3.756 0 0 0 3.762-3.761A3.76 3.76 0 0 0 10 7.8m-4.078.04A2.94 2.94 0 0 0 3 10.762c0 .96.441 1.8 1.16 2.32a1.76 1.76 0 0 1 1.559-.96c.078 0 .16 0 .238.038-.039-.2-.039-.36-.039-.558 0-.922.281-1.762.8-2.442-.32-.36-.519-.84-.6-1.32zm9.156 1.719c-.48 0-.96.12-1.36.32q.36.778.36 1.68a4.15 4.15 0 0 1-1.16 2.879c.52.601 1.32.96 2.16.96A2.94 2.94 0 0 0 18 12.477a2.937 2.937 0 0 0-2.922-2.918M2.68 9.96a2.679 2.679 0 1 0 0 5.36c.558 0 1.078-.16 1.52-.481-.16-.281-.282-.602-.282-.961 0-.2.039-.36.078-.52-.8-.601-1.36-1.558-1.36-2.601 0-.281.04-.52.122-.801.004.004-.04.004-.078.004m15.84 2.32c-.079 0-.16 0-.239.04v.199c0 .84-.32 1.64-.879 2.199.282.32.68.52 1.121.52.801 0 1.48-.641 1.48-1.481s-.683-1.477-1.483-1.477m-12.801.117c-.801 0-1.48.641-1.48 1.48 0 .84.64 1.481 1.48 1.481.64 0 1.16-.398 1.36-.921A3.9 3.9 0 0 1 6 12.476a.8.8 0 0 0-.281-.079"/>
</svg>
